dist/svg/u1FA7A.svg

<?xml version="1.0" encoding="UTF-8"?><svg id="a" xmlns="http://www.w3.org/2000/svg" viewBox="0 0 40 40"><g><path d="M8.451,3.752h.527c.728,0,1.317,.589,1.317,1.317s-.589,1.317-1.317,1.317h-.527c-1.17,0-2.121,.951-2.121,2.121v4.596c0,3.902,2.869,7.232,6.532,7.582,2.075,.193,4.06-.459,5.59-1.85,1.509-1.371,2.375-3.326,2.375-5.364v-4.964c0-1.17-.951-2.121-2.121-2.121h-1.161c-.728,0-1.317-.589-1.317-1.317s.589-1.317,1.317-1.317h1.161c2.622,0,4.755,2.133,4.755,4.755v4.964c0,2.777-1.179,5.444-3.236,7.313-2.085,1.895-4.787,2.799-7.612,2.521-4.999-.476-8.915-4.958-8.915-10.202v-4.596c0-2.622,2.133-4.755,4.755-4.755Z" fill="#949494"/><circle cx="31.274" cy="25.305" r="5.029" fill="#949494"/><path d="M3.697,13.103h2.633c0,3.902,2.869,7.232,6.532,7.582,2.075,.193,4.06-.459,5.59-1.85,1.509-1.371,2.375-3.326,2.375-5.364h2.633c0,2.777-1.179,5.444-3.236,7.313-2.085,1.895-4.787,2.799-7.612,2.521-4.999-.476-8.915-4.958-8.915-10.202Z" fill="#3d3d3d"/><path d="M22.427,36.885c-5.524,0-10.017-4.494-10.017-10.017v-5.001h2.339v5.001c0,4.234,3.444,7.679,7.679,7.679s7.679-3.444,7.679-7.679h2.339c0,5.524-4.494,10.017-10.017,10.017Z" fill="#3d3d3d"/><circle cx="31.274" cy="25.305" r="2.554" fill="#d5d5d5"/><circle cx="9.147" cy="5.045" r="1.93" fill="#3d3d3d"/><circle cx="17.346" cy="5.045" r="1.93" fill="#3d3d3d"/></g><rect x="0" width="40" height="40" fill="none"/></svg>

<svg id="Layer_1" data-name="Layer 1" xmlns="http://www.w3.org/2000/svg" viewBox="0 0 40 40"><defs><style>.cls-1{fill:#949494;}.cls-2{fill:#3d3d3d;}.cls-3{fill:#d5d5d5;}.cls-4{fill:none;}</style></defs><path class="cls-1" d="M8.451,3.752h.528a1.317,1.317,0,0,1,0,2.633H8.451A2.124,2.124,0,0,0,6.33,8.507v4.6a7.506,7.506,0,0,0,6.532,7.582,7.254,7.254,0,0,0,7.965-7.215V8.507A2.124,2.124,0,0,0,18.7,6.385H17.544a1.317,1.317,0,0,1,0-2.633H18.7A4.76,4.76,0,0,1,23.46,8.507V13.47a9.9,9.9,0,0,1-3.236,7.314,9.769,9.769,0,0,1-7.612,2.521A10.158,10.158,0,0,1,3.7,13.1v-4.6A4.76,4.76,0,0,1,8.451,3.752Z"/><circle class="cls-1" cx="31.274" cy="25.305" r="5.029"/><path class="cls-2" d="M3.7,13.1H6.33a7.506,7.506,0,0,0,6.532,7.582,7.254,7.254,0,0,0,7.965-7.215H23.46a9.9,9.9,0,0,1-3.236,7.314,9.769,9.769,0,0,1-7.612,2.521A10.158,10.158,0,0,1,3.7,13.1Z"/><path class="cls-2" d="M22.427,36.885A10.029,10.029,0,0,1,12.409,26.868v-5h2.339v5a7.679,7.679,0,0,0,15.357,0h2.339A10.028,10.028,0,0,1,22.427,36.885Z"/><circle class="cls-3" cx="31.274" cy="25.305" r="2.554"/><circle class="cls-2" cx="9.147" cy="5.045" r="1.93"/><circle class="cls-2" cx="17.346" cy="5.045" r="1.93"/><rect class="cls-4" width="40" height="40"/></svg>
